X: 20805
T: Johnny Spillane's Favourite
R: polka
M: 2/4
K: Dmajor
|:Ad f/e/d/c/|dF Ad|cE G>B|AD FG|
Ad f/e/d/c/|dF Ad|cB GE|1 {G}ED DB:|2 {G}ED Dg||
|:af d>d|cb b^a|bB c>B|Aa ag|
af d>d|cb b^a|bB c>d|ed d2:|

